_prebuild/svg/dribbble.svg

<?xml version="1.0" encoding="UTF-8" standalone="no"?>
<svg width="22px" height="22px" viewBox="0 0 22 22" version="1.1" xmlns="http://www.w3.org/2000/svg" xmlns:xlink="http://www.w3.org/1999/xlink">
    <!-- Generator: Sketch 39 (31667) - http://www.bohemiancoding.com/sketch -->
    <title>dribble</title>
    <desc>Created with Sketch.</desc>
    <defs></defs>
    <g id="Current" stroke="none" stroke-width="1" fill="none" fill-rule="evenodd">
        <g id="Home" transform="translate(-336.000000, -1086.000000)" fill="#444444">
            <g id="Sect3-Online" transform="translate(166.000000, 1085.000000)">
                <g id="dribble" transform="translate(170.000000, 1.000000)">
                    <path d="M21.7762098,8.78628961 C21.6326219,8.07878182 21.4152996,7.38291493 21.1345916,6.71809042 C20.8603516,6.06620025 20.5175516,5.43759186 20.120421,4.85037333 C19.7271712,4.26832853 19.27571,3.71991299 18.7789734,3.22323476 C18.2809431,2.7252631 17.7337567,2.27385502 17.1503499,1.88065142 C16.5630623,1.48227409 15.93438,1.14210124 15.2824131,0.865306602 C14.6175104,0.585925098 13.9215617,0.36733494 13.2152643,0.225057323 C12.4908567,0.0763125404 11.7457517,0 11.0006468,0 C10.2542483,0 9.50914329,0.0763125404 8.7847357,0.225057323 C8.07843829,0.36733494 7.38248956,0.585925098 6.71758688,0.865306602 C6.06562004,1.14210124 5.43693773,1.48227409 4.84835656,1.88065142 C4.26624331,2.27385502 3.71905686,2.7252631 3.22102664,3.22323476 C2.72299641,3.71991299 2.27282884,4.26832853 1.879579,4.85037333 C1.48115482,5.43759186 1.13964838,6.06620025 0.864114776,6.71809042 C0.583406832,7.38291493 0.367378138,8.07878182 0.222496619,8.78628961 C0.0750279297,9.50802516 0,10.2543359 0,10.9993533 C0,11.7456641 0.0750279297,12.4919748 0.222496619,13.2162973 C0.367378138,13.9212182 0.583406832,14.6183785 0.864114776,15.2819096 C1.13964838,15.9337998 1.48115482,16.5637016 1.879579,17.1522135 C2.27282884,17.7342583 2.72299641,18.280087 3.22102664,18.7780587 C3.71905686,19.2760303 4.26624331,19.726145 4.84835656,20.1193486 C5.43693773,20.5177259 6.06562004,20.8591922 6.71758688,21.1346934 C7.38248956,21.4153683 8.07843829,21.6300782 8.7847357,21.7749427 C9.50914329,21.9249809 10.2542483,22 11.0006468,22 C11.7457517,22 12.4908567,21.9249809 13.2152643,21.7749427 C13.9215617,21.6300782 14.6175104,21.4153683 15.2824131,21.1346934 C15.93438,20.8591922 16.5630623,20.5177259 17.1503499,20.1193486 C17.7337567,19.726145 18.2809431,19.2760303 18.7789734,18.7780587 C19.27571,18.280087 19.7271712,17.7342583 20.120421,17.1522135 C20.5175516,16.5637016 20.8603516,15.9337998 21.1345916,15.2819096 C21.4152996,14.6183785 21.6326219,13.9212182 21.7762098,13.2162973 C21.9249721,12.4919748 22,11.7456641 22,10.9993533 C22,10.2543359 21.9249721,9.50802516 21.7762098,8.78628961 L21.7762098,8.78628961 Z M20.3920739,10.9062261 C20.2562474,10.8764772 17.0766155,10.1922512 13.849121,10.5983891 C13.7818545,10.4380034 13.7145881,10.2763243 13.6460281,10.1146452 C13.4494032,9.65418308 13.2398424,9.1988947 13.0212266,8.75136692 C16.7312283,7.23675701 18.2369613,5.05861603 18.2550714,5.03274737 C19.571941,6.63401728 20.3700829,8.67764125 20.3920739,10.9062261 L20.3920739,10.9062261 Z M17.2046804,3.95014404 C17.1813959,3.98636016 15.843829,6.02351696 12.296819,7.35187254 C10.69148,4.40155212 8.92703005,2.05785173 8.78602928,1.87159739 C9.49620744,1.69957082 10.2374316,1.60644365 11.0006468,1.60644365 C13.378256,1.60644365 15.5488916,2.49373861 17.2046804,3.95014404 L17.2046804,3.95014404 Z M8.7498089,1.87935799 C8.7498089,1.88065142 8.74851532,1.88065142 8.74851532,1.88065142 C8.74851532,1.88065142 8.73687305,1.88323829 8.72005645,1.88711858 C8.72911154,1.88453172 8.73946022,1.88323829 8.7498089,1.87935799 L8.7498089,1.87935799 Z M6.99182689,2.50408607 C7.11601105,2.67223235 8.85458929,5.0262802 10.4806256,7.91710271 C5.96989475,9.116115 2.05421297,9.06825798 1.80584465,9.06437768 C2.41641677,6.15415368 4.3710237,3.74190135 6.99182689,2.50408607 L6.99182689,2.50408607 Z M1.60533898,10.9993533 C1.60533898,10.899759 1.61051332,10.8014581 1.61310049,10.7031572 C1.77867937,10.7070375 6.42135591,10.8118055 11.2580702,9.36445411 C11.5271359,9.8908813 11.7845593,10.4263625 12.0199918,10.9605503 C11.8958076,10.995473 11.772917,11.0329825 11.6500265,11.073079 C6.58046687,12.7118584 4.0088199,17.2725028 4.0088199,17.2725028 C4.0088199,17.2725028 4.01270065,17.2763831 4.01270065,17.2776765 C2.51602281,15.6130284 1.60533898,13.4128991 1.60533898,10.9993533 L1.60533898,10.9993533 Z M11.0006468,20.3935564 C8.72652437,20.3935564 6.64126536,19.5851608 5.01522902,18.241284 C5.13941318,18.3408784 5.22608338,18.40555 5.22608338,18.40555 C5.22608338,18.40555 7.02675369,14.4786878 12.5982243,12.537245 C12.6189216,12.5294844 12.639619,12.5230172 12.6616099,12.5165501 C13.9836538,15.9519078 14.5282531,18.8285026 14.6679603,19.6498324 C13.5412477,20.1284026 12.3006997,20.3935564 11.0006468,20.3935564 L11.0006468,20.3935564 Z M16.2500147,18.790993 C16.1542894,18.2244694 15.653672,15.4668705 14.4208855,12.0819566 C17.4543423,11.5969193 20.0816135,12.4285966 20.2756512,12.4919748 C19.8578232,15.1085896 18.3585582,17.3669234 16.2500147,18.790993 L16.2500147,18.790993 Z" id="Shape"></path>
                </g>
            </g>
        </g>
    </g>
</svg>

<svg width="22" height="22" viewBox="0 0 22 22" xmlns="http://www.w3.org/2000/svg"><title>dribble</title><path fill="#fff" d="M21.776 8.786A10.91 10.91 0 0 0 20.12 4.85a11.075 11.075 0 0 0-2.97-2.97A10.927 10.927 0 0 0 13.215.225a11.034 11.034 0 0 0-6.497.641A11.028 11.028 0 0 0 1.88 4.85 10.875 10.875 0 0 0 .222 8.786a11.091 11.091 0 0 0 0 4.43 11.01 11.01 0 0 0 1.658 3.936 11.05 11.05 0 0 0 4.838 3.983 11.021 11.021 0 0 0 6.497.64 10.878 10.878 0 0 0 3.935-1.656 11.005 11.005 0 0 0 4.626-6.903 11.045 11.045 0 0 0 0-4.43zm-1.384 2.12c-.136-.03-3.315-.714-6.543-.308-.067-.16-.134-.322-.203-.483a29.54 29.54 0 0 0-.625-1.364c3.71-1.514 5.216-3.692 5.234-3.718a9.363 9.363 0 0 1 2.137 5.873zM17.205 3.95c-.024.036-1.361 2.074-4.908 3.402a47.73 47.73 0 0 0-3.511-5.48 9.364 9.364 0 0 1 8.419 2.079zM8.75 1.88h-.001l-.029.007c.01-.002.02-.004.03-.008zm-1.758.624c.124.168 1.863 2.522 3.489 5.413-4.511 1.2-8.427 1.151-8.675 1.147a9.407 9.407 0 0 1 5.186-6.56zM1.605 11c0-.1.006-.198.008-.296.166.004 4.808.109 9.645-1.339.27.527.527 1.062.762 1.597a9.36 9.36 0 0 0-.37.112c-5.07 1.639-7.641 6.2-7.641 6.2s.004.003.004.005a9.358 9.358 0 0 1-2.408-6.279zm9.396 9.395a9.363 9.363 0 0 1-5.986-2.153c.124.1.211.165.211.165s1.8-3.927 7.372-5.869a.909.909 0 0 1 .064-.02c1.322 3.435 1.866 6.312 2.006 7.133a9.363 9.363 0 0 1-3.667.744zm5.249-1.603c-.096-.567-.596-3.324-1.83-6.709 3.034-.485 5.662.347 5.856.41a9.4 9.4 0 0 1-4.026 6.299z" fill-rule="evenodd"/></svg>
